packages/ckeditor5-icons/theme/icons/fullscreen-enter.svg

<svg width="20" height="20" viewBox="0 0 20 20" xmlns="http://www.w3.org/2000/svg">
<path d="M11.5001 5.75C11.0859 5.75 10.7501 5.41421 10.7501 5C10.7501 4.58579 11.0859 4.25 11.5001 4.25H15.0001C15.4143 4.25 15.7501 4.58579 15.7501 5V8.5C15.7501 8.91421 15.4143 9.25 15.0001 9.25C14.5859 9.25 14.2501 8.91421 14.2501 8.5V6.81066L11.5305 9.53033C11.2376 9.82322 10.7627 9.82322 10.4698 9.53033C10.1769 9.23744 10.1769 8.76256 10.4698 8.46967L13.1895 5.75H11.5001Z"/>
<path d="M9.53033 10.4696C9.82322 10.7625 9.82322 11.2374 9.53033 11.5303L6.81066 14.2499H8.5C8.91421 14.2499 9.25 14.5857 9.25 14.9999C9.25 15.4142 8.91421 15.7499 8.5 15.7499H5C4.58579 15.7499 4.25 15.4142 4.25 14.9999V11.4999C4.25 11.0857 4.58579 10.7499 5 10.7499C5.41421 10.7499 5.75 11.0857 5.75 11.4999V13.1893L8.46967 10.4696C8.76256 10.1767 9.23744 10.1767 9.53033 10.4696Z"/>
<path d="M2 0H18C19.1046 0 20 0.895431 20 2V18C20 19.1046 19.1046 20 18 20H2C0.895431 20 0 19.1046 0 18V2C0 0.895431 0.895431 0 2 0ZM18 1.5H2C1.72386 1.5 1.5 1.72386 1.5 2V18C1.5 18.2761 1.72386 18.5 2 18.5H18C18.2761 18.5 18.5 18.2761 18.5 18V2C18.5 1.72386 18.2761 1.5 18 1.5Z" />
</svg>

<svg viewBox="0 0 20 20" xmlns="http://www.w3.org/2000/svg"><path d="M11.5 5.75a.75.75 0 0 1 0-1.5H15a.75.75 0 0 1 .75.75v3.5a.75.75 0 0 1-1.5 0V6.81l-2.72 2.72a.75.75 0 0 1-1.06-1.06l2.72-2.72H11.5Z"/><path d="M9.53 10.47a.75.75 0 0 1 0 1.06l-2.72 2.72H8.5a.75.75 0 0 1 0 1.5H5a.75.75 0 0 1-.75-.75v-3.5a.75.75 0 0 1 1.5 0v1.69l2.72-2.72a.75.75 0 0 1 1.06 0Z"/><path d="M2 0h16a2 2 0 0 1 2 2v16a2 2 0 0 1-2 2H2a2 2 0 0 1-2-2V2a2 2 0 0 1 2-2Zm16 1.5H2a.5.5 0 0 0-.5.5v16a.5.5 0 0 0 .5.5h16a.5.5 0 0 0 .5-.5V2a.5.5 0 0 0-.5-.5Z"/></svg>
